shared/images/iconfont/49-kb-iconfont-identity-hn-16.svg

<?xml version="1.0" encoding="UTF-8"?>
<svg width="16px" height="16px" viewBox="0 0 16 16" version="1.1" xmlns="http://www.w3.org/2000/svg" xmlns:xlink="http://www.w3.org/1999/xlink">
    <!-- Generator: sketchtool 57.1 (101010) - https://sketch.com -->
    <title>CE4C7458-EEB9-4CCE-A26A-BB768DBB0BC2</title>
    <desc>Created with sketchtool.</desc>
    <g id="Symbols" stroke="none" stroke-width="1" fill="none" fill-rule="evenodd">
        <g id="49-kb-iconfont-identity-hn-16">
            <g>
                <rect id="icon-area" opacity="0" x="0" y="0" width="16" height="16"></rect>
                <path d="M12.9941413,1 C14.1019465,1 15,1.89706013 15,3.00585866 L15,12.9941413 C15,14.1019465 14.1029399,15 12.9941413,15 L3.00585866,15 C1.89805351,15 1,14.1029399 1,12.9941413 L1,3.00585866 C1,1.89805351 1.89706013,1 3.00585866,1 L12.9941413,1 Z M5.67436996,4.00067086 L5.64709535,4.01522569 L4.23076923,4.01522569 L6.99682601,8.6222293 L6.99682601,12 L9.02678233,12 L9.02678233,8.6222293 L11.7692308,4.01522569 L10.3521533,4.01522569 C10.2176586,3.99329256 10.0147897,4.33218748 9.76233046,4.75974676 C9.49258984,5.20241182 9.27319078,5.55575574 9.12141472,5.82109207 C8.95235722,6.0864284 8.76676966,6.41087431 8.54812197,6.79442979 C8.34525297,7.1773285 8.15966541,7.5313292 7.99135928,7.84066932 L7.99135928,7.84066932 L7.95754778,7.84066932 C7.83958322,7.59043877 7.68780716,7.32510245 7.55256116,7.04466034 C7.4007851,6.77932401 7.23247897,6.49953867 7.04689141,6.19019855 C6.87783392,5.88020165 6.72605786,5.61486532 6.62537472,5.42308758 C6.50741016,5.23196661 6.33835267,4.9515245 6.10242354,4.56796902 C5.88302448,4.1850703 5.73124842,3.93418298 5.64709535,4.01522569 Z" id="Icon-hackernews" fill="#000000"></path>
            </g>
        </g>
    </g>
</svg>

<svg xmlns="http://www.w3.org/2000/svg" width="16" height="16" viewBox="0 0 16 16">
    <path fill="#000" fill-rule="evenodd" d="M12.994 1C14.102 1 15 1.897 15 3.006v9.988A2.005 2.005 0 0 1 12.994 15H3.006A2.005 2.005 0 0 1 1 12.994V3.006C1 1.898 1.897 1 3.006 1h9.988zm-7.32 3l-.027.015H4.231l2.766 4.607V12h2.03V8.622l2.742-4.607h-1.417c-.134-.022-.337.317-.59.745-.27.442-.489.796-.64 1.061-.17.265-.355.59-.574.973-.203.383-.388.737-.557 1.047h-.033c-.118-.25-.27-.516-.405-.796-.152-.266-.32-.545-.506-.855-.17-.31-.32-.575-.422-.767l-.523-.855c-.219-.383-.37-.634-.455-.553z"/>
</svg>
